img/Parceiros/ranek.svg

<svg width="148" height="36" fill="none" xmlns="http://www.w3.org/2000/svg"><path d="M48.624 35.52V0h-8.976L20.88 27.408l-3.168-3.984c5.664-.864 8.832-5.856 8.832-11.184 0-5.088-2.784-9.36-6.528-10.992C18.144.432 15.36 0 11.664 0H0v35.52h8.688V24.048h.096l8.208 11.472h9.168l3.12-5.136h10.272v5.136h9.072ZM8.688 17.856V7.968h3.456c3.408 0 5.712 1.728 5.712 4.8 0 3.264-2.16 5.088-5.76 5.088H8.688Zm30.864 5.328H33.6l5.856-9.84h.096v9.84ZM85.03 35.52V0h-8.688l.384 22.464L62.902 0h-7.824v35.52h8.688l-.24-21.696L77.158 35.52h7.872Zm26.198 0v-7.968h-11.04v-6.096h10.704v-7.968h-10.704v-5.52h11.04V0H91.5v35.52h19.728Zm36.062 0-12.528-17.808L146.522 0h-9.504l-10.032 15.984h-.096V0h-9.072v35.52h9.072V20.16h.096l9.696 15.36h10.608Z" fill="#9C9C9C"/></svg>

<svg width="148" height="36" viewBox="0 0 148 36" fill="none" xmlns="http://www.w3.org/2000/svg">
<path d="M48.624 35.52V0H39.648L20.88 27.408L17.712 23.424C23.376 22.56 26.544 17.568 26.544 12.24C26.544 7.152 23.76 2.88 20.016 1.248C18.144 0.432 15.36 0 11.664 0H0V35.52H8.688V24.048H8.784L16.992 35.52H26.16L29.28 30.384H39.552V35.52H48.624ZM8.688 17.856V7.968H12.144C15.552 7.968 17.856 9.696 17.856 12.768C17.856 16.032 15.696 17.856 12.096 17.856H8.688ZM39.552 23.184H33.6L39.456 13.344H39.552V23.184ZM85.03 35.52V0H76.342L76.726 22.464L62.902 0H55.078V35.52H63.766L63.526 13.824L77.158 35.52H85.03ZM111.228 35.52V27.552H100.188V21.456H110.892V13.488H100.188V7.968H111.228V0H91.5V35.52H111.228ZM147.29 35.52L134.762 17.712L146.522 0H137.018L126.986 15.984H126.89V0H117.818V35.52H126.89V20.16H126.986L136.682 35.52H147.29Z" fill="#9C9C9C"/>
</svg>
